X: 082
T: Troop
B: C. & S. Thompson, "The Compleat Tutor for the Fife" c.1760 p.8 #2
S: http://imslp.org/wiki/The_Compleat_Tutor_for_the_Fife_(Anonymous)
Z: 2014 John Chambers <jc:trillian.mit.edu>
M: 3/8
L: 1/16
K: G
% - - - - - - - - - - - - - - - - - - - - - - - - -
|:\
G2GABc | d2g2Tf2 | e2d2^c2 | d^cded2 |\
G2GABc | d2g2f2 | e2d2^c2 | d6 :|
|:\
e2efg2 | d2efg2 | c2edcB | A6 |\
G2GABc | d2efg2 | {c}TB2c2A2 | G6 :|
% - - - - - - - - - - - - - - - - - - - - - - - - -
